X:966
T:Reel 966
M:4/4
K:Gmaj
L:1/8
d>c (3BAB G>A (3AGA |G>F (3FEF G>A (3FEF |G>F (3FED AFGA||B>B (3cBA B>G (3AFD :||2A>A (3AGA B2F2| (3EFE EF E>DEF|A>F (3FED A>D (3FGA |G>E (3FED G2 (3BAG |FDEF EDA>G (3FGA | (3BcB  (3ABA B>G (3BAG |FDF (3AEA DcBA:||2D>F (3FGF A>B (3AGA |fef (3gfg f2ge|
